public/img/CATEGORIES_ICONS/DESIGN_ICON.svg

<?xml version="1.0" encoding="UTF-8"?>
<svg width="88px" height="118px" viewBox="0 0 88 118" version="1.1" xmlns="http://www.w3.org/2000/svg" xmlns:xlink="http://www.w3.org/1999/xlink">
    <!-- Generator: Sketch 42 (36781) - http://www.bohemiancoding.com/sketch -->
    <title>DESIGN_ICON</title>
    <desc>Created with Sketch.</desc>
    <defs></defs>
    <g id="Page-1" stroke="none" stroke-width="1" fill="none" fill-rule="evenodd">
        <g id="Home" transform="translate(-221.000000, -1067.000000)">
            <g id="CATEGORIES" transform="translate(122.000000, 1066.000000)">
                <g id="DESIGN_ICON" transform="translate(99.000000, 0.982000)">
                    <polygon id="Fill-134" fill="#00B1B0" points="0.5224 25.0183 43.8234 0.0183 87.1244 25.0183 87.1244 75.0183 43.8234 100.0183 0.5224 75.0183"></polygon>
                    <path d="M26.1355,116.2075 C27.8625,116.2075 28.9665,115.1875 28.9665,113.2695 C28.9665,111.3735 27.8385,110.3545 26.1355,110.3545 L24.8645,110.3545 L24.8645,116.2075 L26.1355,116.2075 Z M23.3175,109.0225 L26.2195,109.0225 C28.8455,109.0225 30.5605,110.5825 30.5605,113.2695 C30.5605,115.9555 28.8455,117.5385 26.2195,117.5385 L23.3175,117.5385 L23.3175,109.0225 Z" id="Fill-135" fill="#00B1B0"></path>
                    <polygon id="Fill-136" fill="#00B1B0" points="32.1853 109.0229 37.2823 109.0229 37.2823 110.3549 33.7323 110.3549 33.7323 112.5859 36.5993 112.5859 36.5993 113.9169 33.7323 113.9169 33.7323 116.2079 37.4743 116.2079 37.4743 117.5389 32.1853 117.5389"></polygon>
                    <path d="M39.2771,115.356 C39.2771,115.356 40.2001,116.255 41.4001,116.255 C42.0481,116.255 42.6351,115.919 42.6351,115.224 C42.6351,113.701 38.6171,113.964 38.6171,111.35 C38.6171,109.935 39.8401,108.879 41.4721,108.879 C43.1511,108.879 44.0141,109.791 44.0141,109.791 L43.3421,111.05 C43.3421,111.05 42.5271,110.306 41.4601,110.306 C40.7401,110.306 40.1761,110.726 40.1761,111.326 C40.1761,112.837 44.1821,112.465 44.1821,115.188 C44.1821,116.543 43.1511,117.682 41.3761,117.682 C39.4811,117.682 38.4371,116.519 38.4371,116.519 L39.2771,115.356 Z" id="Fill-137" fill="#00B1B0"></path>
                    <polygon id="Fill-138" fill="#00B1B0" points="45.733 117.539 47.28 117.539 47.28 109.023 45.733 109.023"></polygon>
                    <path d="M53.2546,108.8794 C55.3416,108.8794 56.4216,109.9584 56.4216,109.9584 L55.6536,111.1094 C55.6536,111.1094 54.7416,110.2944 53.3866,110.2944 C51.4796,110.2944 50.4606,111.6134 50.4606,113.2214 C50.4606,115.0674 51.7196,116.2674 53.3146,116.2674 C54.5986,116.2674 55.4496,115.3794 55.4496,115.3794 L55.4496,114.3844 L54.1426,114.3844 L54.1426,113.0534 L56.8406,113.0534 L56.8406,117.5384 L55.5216,117.5384 L55.5216,117.1304 C55.5216,116.9504 55.5336,116.7714 55.5336,116.7714 L55.5096,116.7714 C55.5096,116.7714 54.6226,117.6824 53.0386,117.6824 C50.7966,117.6824 48.8656,115.9434 48.8656,113.2694 C48.8656,110.7984 50.7246,108.8794 53.2546,108.8794" id="Fill-139" fill="#00B1B0"></path>
                    <path d="M58.5613,109.0229 L60.1083,109.0229 L63.3343,113.9409 C63.6583,114.4319 64.0423,115.2599 64.0423,115.2599 L64.0663,115.2599 C64.0663,115.2599 63.9823,114.4439 63.9823,113.9409 L63.9823,109.0229 L65.5173,109.0229 L65.5173,117.5389 L63.9823,117.5389 L60.7563,112.6329 C60.4323,112.1409 60.0483,111.3139 60.0483,111.3139 L60.0243,111.3139 C60.0243,111.3139 60.1083,112.1289 60.1083,112.6329 L60.1083,117.5389 L58.5613,117.5389 L58.5613,109.0229 Z" id="Fill-140" fill="#00B1B0"></path>
                    <path d="M53.3379,35.4278 C50.4959,35.4278 47.8549,36.2858 45.6569,37.7548 L53.0879,50.6268 L39.5609,50.6268 C40.2419,57.6368 46.1489,63.1158 53.3379,63.1158 C60.9839,63.1158 67.1819,56.9178 67.1819,49.2718 C67.1819,41.6258 60.9839,35.4278 53.3379,35.4278" id="Fill-141" fill="#FEFEFE"></path>
                    <polygon id="Fill-142" fill="#FEFEFE" points="20.4655 48.538 34.9685 23.419 49.4705 48.538"></polygon>
                    <path d="M38.5129,55.1397 L26.9149,55.1397 L26.9149,76.6177 L48.3929,76.6177 L48.3929,64.4267 C43.8829,62.9697 40.2489,59.5677 38.5129,55.1397" id="Fill-143" fill="#FEFEFE"></path>
                </g>
            </g>
        </g>
    </g>
</svg>

<svg width="88" height="118" viewBox="0 0 88 118" xmlns="http://www.w3.org/2000/svg"><title>DESIGN_ICON</title><g fill="none" fill-rule="evenodd"><path fill="#00B1B0" d="M.522 25L43.823 0l43.301 25v50l-43.3 25L.521 75zM26.136 116.19c1.727 0 2.83-1.02 2.83-2.939 0-1.895-1.128-2.915-2.83-2.915h-1.271v5.853h1.27zm-2.819-7.186h2.902c2.627 0 4.341 1.56 4.341 4.247 0 2.686-1.714 4.27-4.34 4.27h-2.902v-8.517zM32.185 109.005h5.097v1.332h-3.55v2.23H36.6v1.332h-2.867v2.29h3.742v1.332h-5.289zM39.277 115.338s.923.899 2.123.899c.648 0 1.235-.336 1.235-1.031 0-1.523-4.018-1.26-4.018-3.874 0-1.415 1.223-2.471 2.855-2.471 1.68 0 2.542.912 2.542.912l-.672 1.259s-.815-.744-1.882-.744c-.72 0-1.284.42-1.284 1.02 0 1.511 4.006 1.139 4.006 3.862 0 1.355-1.03 2.494-2.806 2.494-1.895 0-2.939-1.163-2.939-1.163l.84-1.163zM45.733 117.521h1.547v-8.516h-1.547zM53.255 108.861c2.087 0 3.167 1.08 3.167 1.08l-.768 1.15s-.912-.815-2.267-.815c-1.907 0-2.926 1.32-2.926 2.927 0 1.846 1.259 3.046 2.854 3.046 1.284 0 2.135-.888 2.135-.888v-.995h-1.307v-1.33h2.698v4.484h-1.32v-.408c0-.18.013-.359.013-.359h-.024s-.887.911-2.471.911c-2.242 0-4.173-1.739-4.173-4.413 0-2.47 1.859-4.39 4.389-4.39M58.561 109.005h1.547l3.226 4.918c.324.49.708 1.319.708 1.319h.024s-.084-.816-.084-1.32v-4.917h1.535v8.516h-1.535l-3.226-4.906c-.324-.492-.708-1.32-.708-1.32h-.024s.084.816.084 1.32v4.906h-1.547v-8.516z"/><path d="M53.338 35.41c-2.842 0-5.483.858-7.681 2.327l7.43 12.872H39.562c.68 7.01 6.588 12.489 13.777 12.489 7.646 0 13.844-6.198 13.844-13.844 0-7.646-6.198-13.844-13.844-13.844" fill="#FEFEFE"/><path fill="#FEFEFE" d="M20.465 48.52l14.503-25.119L49.47 48.52zM38.513 55.122H26.915V76.6h21.478V64.409a15.84 15.84 0 0 1-9.88-9.287"/></g></svg>
